src/assets/images/currencies/zec.svg

<svg height="32" viewBox="0 0 32 32" width="32" xmlns="http://www.w3.org/2000/svg"><path d="m15.9930586 8.00694143c1.0776572 0 2.1275488.20997831 3.1132321.62646421.9527115.40260304 1.8065076.97874187 2.540564 1.71279826.7340564.7340564 1.3101952 1.5895879 1.7127982 2.540564.4164859.9856833.6281996 2.0338395.6281996 3.1114967 0 1.0793927-.2117137 2.1258135-.6281996 3.1114968-.402603.9527115-.9787418 1.8065076-1.7127982 2.540564s-1.5895879 1.3101952-2.540564 1.7127982c-.9856833.4199567-2.0321041.6316703-3.1114968.6316703-1.0793926 0-2.1258134-.2117136-3.1114967-.6281995-.9527115-.4026031-1.8065076-.9787419-2.540564-1.7127983-.73405641-.7340564-1.31019524-1.5895879-1.71279828-2.540564-.41822125-.9874187-.62993492-2.0338395-.62993492-3.1132321s.21171367-2.1258134.62819957-3.1114967c.40260303-.9527115.97874186-1.8065076 1.71279823-2.540564.7340564-.73405644 1.5895879-1.31019527 2.540564-1.7127983.9856833-.4164859 2.0338395-.62819957 3.1114968-.62819957zm.0017353 1.77527115c-1.6607375 0-3.2225596.64728852-4.3973969 1.82039042-1.1748373 1.1748373-1.82039049 2.7366595-1.82039049 4.397397s.64728849 3.2225597 1.82039049 4.397397c1.1748373 1.1731019 2.7366594 1.8203904 4.3973969 1.8203904 1.6607376 0 3.2225597-.6472885 4.397397-1.8203904 1.1731019-1.1748373 1.8203904-2.7366595 1.8203904-4.397397s-.6472885-3.2225597-1.8203904-4.397397c-1.1748373-1.1731019-2.7366594-1.82039042-4.397397-1.82039042zm.8659436 1.01518442v1.4212581h2.1501085c0 .586551.0711497 1.154013-.0347072 1.6885033-.0537961.2845986-.3731019.5327548-.5865509.780911-.6750543.8-1.3501085 1.5809111-2.0425163 2.3809111-.2637744.3175705-.5292842.6004338-.8329718.921475h3.4637744v1.740564h-2.1327549c.0347072.4980477.0537961.959653.0885033 1.4559653h-1.7943601v-1.4386117h-2.1327549c0-.5691974-.0711497-1.1366594.0347072-1.6694143.053796-.2845987.3731019-.5327549.5691973-.7809111.6750543-.8 1.3501085-1.580911 2.0425163-2.380911.2672451-.3019523.5327549-.586551.8347072-.9232105h-3.3214751v-1.7405639h1.9713666v-1.4559653z" fill="#ff9580" fill-rule="evenodd"/></svg>

<svg xmlns="http://www.w3.org/2000/svg" width="32" height="32" viewBox="0 0 32 32">
  <path fill="#FF9580" fill-rule="evenodd" d="M15.9930586,8.00694143 C17.0707158,8.00694143 18.1206074,8.21691974 19.1062907,8.63340564 C20.0590022,9.03600868 20.9127983,9.61214751 21.6468547,10.3462039 C22.3809111,11.0802603 22.9570499,11.9357918 23.3596529,12.8867679 C23.7761388,13.8724512 23.9878525,14.9206074 23.9878525,15.9982646 C23.9878525,17.0776573 23.7761388,18.1240781 23.3596529,19.1097614 C22.9570499,20.0624729 22.3809111,20.916269 21.6468547,21.6503254 C20.9127983,22.3843818 20.0572668,22.9605206 19.1062907,23.3631236 C18.1206074,23.7830803 17.0741866,23.9947939 15.9947939,23.9947939 C14.9154013,23.9947939 13.8689805,23.7830803 12.8832972,23.3665944 C11.9305857,22.9639913 11.0767896,22.3878525 10.3427332,21.6537961 C9.60867679,20.9197397 9.03253796,20.0642082 8.62993492,19.1132321 C8.21171367,18.1258134 8,17.0793926 8,16 C8,14.9206074 8.21171367,13.8741866 8.62819957,12.8885033 C9.0308026,11.9357918 9.60694143,11.0819957 10.3409978,10.3479393 C11.0750542,9.61388286 11.9305857,9.03774403 12.8815618,8.635141 C13.8672451,8.2186551 14.9154013,8.00694143 15.9930586,8.00694143 Z M15.9947939,9.78221258 C14.3340564,9.78221258 12.7722343,10.4295011 11.597397,11.602603 C10.4225597,12.7774403 9.77700651,14.3392625 9.77700651,16 C9.77700651,17.6607375 10.424295,19.2225597 11.597397,20.397397 C12.7722343,21.5704989 14.3340564,22.2177874 15.9947939,22.2177874 C17.6555315,22.2177874 19.2173536,21.5704989 20.3921909,20.397397 C21.5652928,19.2225597 22.2125813,17.6607375 22.2125813,16 C22.2125813,14.3392625 21.5652928,12.7774403 20.3921909,11.602603 C19.2173536,10.4295011 17.6555315,9.78221258 15.9947939,9.78221258 Z M16.8607375,10.797397 L16.8607375,12.2186551 L19.010846,12.2186551 C19.010846,12.8052061 19.0819957,13.3726681 18.9761388,13.9071584 C18.9223427,14.191757 18.6030369,14.4399132 18.3895879,14.6880694 C17.7145336,15.4880694 17.0394794,16.2689805 16.3470716,17.0689805 C16.0832972,17.386551 15.8177874,17.6694143 15.5140998,17.9904555 L18.9778742,17.9904555 L18.9778742,19.7310195 L16.8451193,19.7310195 C16.8798265,20.2290672 16.8989154,20.6906725 16.9336226,21.1869848 L15.1392625,21.1869848 L15.1392625,19.7483731 L13.0065076,19.7483731 C13.0065076,19.1791757 12.9353579,18.6117137 13.0412148,18.0789588 C13.0950108,17.7943601 13.4143167,17.5462039 13.6104121,17.2980477 C14.2854664,16.4980477 14.9605206,15.7171367 15.6529284,14.9171367 C15.9201735,14.6151844 16.1856833,14.3305857 16.4876356,13.9939262 L13.1661605,13.9939262 L13.1661605,12.2533623 L15.1375271,12.2533623 L15.1375271,10.797397 L16.8607375,10.797397 Z"/>
</svg>
